packages/axiom-materials/src/icon_svgs/share.svg

<svg height="16" viewBox="0 0 16 16" width="16" xmlns="http://www.w3.org/2000/svg"><path d="m8.04087292 4.40445138-2.91406375 1.94270917c-.32082781-.21907906-.70879217-.34716055-1.12680917-.34716055-1.105 0-2 .895-2 2s.895 2 2 2c.41821009 0 .80633976-.12819984 1.12725371-.3474642l2.91372757 1.9424851c-.02686875.1307775-.04098128.2662226-.04098128.4049791 0 1.105.895 2 2 2s2-.895 2-2-.895-2-2-2c-.41821619 0-.8063511.1282036-1.12726776.3474738l-2.91362443-1.94292852c.02681085-.13064321.04089219-.26594224.04089219-.40454528 0-.13875648-.01411253-.27420164-.04098128-.40497915l2.91372757-1.94248505c.32091395.21926436.70904362.3474642 1.12725371.3474642 1.105 0 2-.895 2-2s-.895-2-2-2-2 .895-2 2c0 .13856983.01407459.27383725.04087292.40445138z" fill-rule="evenodd"/></svg>

<?xml version="1.0" encoding="UTF-8"?>
<svg width="16px" height="16px" viewBox="0 0 16 16" version="1.1" xmlns="http://www.w3.org/2000/svg" xmlns:xlink="http://www.w3.org/1999/xlink">
    <!-- Generator: sketchtool 43.2 (39069) - http://www.bohemiancoding.com/sketch -->
    <title>share</title>
    <desc>Created with sketchtool.</desc>
    <defs></defs>
    <g id="Page-1" stroke="none" stroke-width="1" fill="none" fill-rule="evenodd">
        <g id="share" fill="#000000">
            <path d="M8.04087292,4.40445138 L5.12680917,6.34716055 C4.80598136,6.12808149 4.418017,6 4,6 C2.895,6 2,6.895 2,8 C2,9.105 2.895,10 4,10 C4.41821009,10 4.80633976,9.87180016 5.12725371,9.6525358 L8.04098128,11.5950209 C8.01411253,11.7257984 8,11.8612435 8,12 C8,13.105 8.895,14 10,14 C11.105,14 12,13.105 12,12 C12,10.895 11.105,10 10,10 C9.58178381,10 9.1936489,10.1282036 8.87273224,10.3474738 L5.95910781,8.40454528 C5.98591866,8.27390207 6,8.13860304 6,8 C6,7.86124352 5.98588747,7.72579836 5.95901872,7.59502085 L8.87274629,5.6525358 C9.19366024,5.87180016 9.58178991,6 10,6 C11.105,6 12,5.105 12,4 C12,2.895 11.105,2 10,2 C8.895,2 8,2.895 8,4 C8,4.13856983 8.01407459,4.27383725 8.04087292,4.40445138 Z"></path>
        </g>
    </g>
</svg>
